Newaita-dark/.DP/16/battery-low-charging.svg

<?xml version="1.0" encoding="UTF-8"?>
<svg xmlns="http://www.w3.org/2000/svg" xmlns:xlink="http://www.w3.org/1999/xlink" width="16pt" height="16pt" viewBox="0 0 16 16" version="1.1">
<g id="surface1">
<path style=" stroke:none;fill-rule:nonzero;fill:rgb(74.117649%,74.117649%,74.117649%);fill-opacity:1;" d="M 1.984375 3.101562 C 1.433594 3.101562 0.992188 3.542969 0.992188 4.09375 L 0.992188 12.03125 C 0.992188 12.582031 1.433594 13.023438 1.984375 13.023438 L 8.183594 13.023438 C 8.0625 12.710938 7.984375 12.378906 7.953125 12.03125 L 2.644531 12.03125 C 2.28125 12.03125 1.984375 11.738281 1.984375 11.371094 L 1.984375 4.753906 C 1.984375 4.390625 2.28125 4.09375 2.644531 4.09375 L 12.570312 4.09375 C 12.933594 4.09375 13.230469 4.390625 13.230469 4.753906 L 13.230469 8.457031 C 13.984375 8.84375 14.589844 9.484375 14.921875 10.265625 C 15.097656 10.148438 15.214844 9.945312 15.214844 9.71875 L 15.214844 6.410156 C 15.214844 6.042969 14.921875 5.746094 14.554688 5.746094 L 14.222656 5.746094 L 14.222656 4.09375 C 14.222656 3.542969 13.78125 3.101562 13.230469 3.101562 Z M 1.984375 3.101562 "/>
<path style=" stroke:none;fill-rule:nonzero;fill:rgb(74.117649%,74.117649%,74.117649%);fill-opacity:1;" d="M 3.308594 5.085938 L 3.96875 5.085938 C 4.152344 5.085938 4.300781 5.21875 4.300781 5.382812 L 4.300781 10.742188 C 4.300781 10.90625 4.152344 11.039062 3.96875 11.039062 L 3.308594 11.039062 C 3.125 11.039062 2.976562 10.90625 2.976562 10.742188 L 2.976562 5.382812 C 2.976562 5.21875 3.125 5.085938 3.308594 5.085938 Z M 3.308594 5.085938 "/>
<path style=" stroke:none;fill-rule:nonzero;fill:rgb(74.117649%,74.117649%,74.117649%);fill-opacity:0.392157;" d="M 5.953125 5.085938 L 6.613281 5.085938 C 6.796875 5.085938 6.945312 5.21875 6.945312 5.382812 L 6.945312 10.742188 C 6.945312 10.90625 6.796875 11.039062 6.613281 11.039062 L 5.953125 11.039062 C 5.769531 11.039062 5.621094 10.90625 5.621094 10.742188 L 5.621094 5.382812 C 5.621094 5.21875 5.769531 5.085938 5.953125 5.085938 Z M 5.953125 5.085938 "/>
<path style=" stroke:none;fill-rule:nonzero;fill:rgb(74.117649%,74.117649%,74.117649%);fill-opacity:0.392157;" d="M 8.601562 5.085938 C 8.417969 5.085938 8.269531 5.21875 8.269531 5.382812 L 8.269531 10.179688 C 8.558594 9.550781 9.019531 9.019531 9.59375 8.648438 L 9.59375 5.382812 C 9.59375 5.21875 9.445312 5.085938 9.261719 5.085938 Z M 8.601562 5.085938 "/>
<path style=" stroke:none;fill-rule:nonzero;fill:rgb(74.117649%,74.117649%,74.117649%);fill-opacity:0.392157;" d="M 11.246094 5.085938 C 11.0625 5.085938 10.914062 5.21875 10.914062 5.382812 L 10.914062 8.121094 C 11.128906 8.082031 11.351562 8.0625 11.578125 8.0625 C 11.800781 8.0625 12.023438 8.082031 12.238281 8.121094 L 12.238281 5.382812 C 12.238281 5.21875 12.089844 5.085938 11.90625 5.085938 Z M 11.246094 5.085938 "/>
<path style=" stroke:none;fill-rule:evenodd;fill:rgb(100%,43.921569%,26.274511%);fill-opacity:1;" d="M 13.066406 9.054688 L 9.425781 12.03125 L 11.082031 12.03125 L 10.089844 14.347656 L 13.726562 11.371094 L 12.074219 11.371094 Z M 13.066406 9.054688 "/>
</g>
</svg>

<svg xmlns="http://www.w3.org/2000/svg" width="16pt" height="16pt" viewBox="0 0 16 16"><path d="M1.984 3.102a.989.989 0 0 0-.992.992v7.937c0 .551.442.992.992.992h6.2a3.64 3.64 0 0 1-.23-.992h-5.31a.66.66 0 0 1-.66-.66V4.754c0-.363.297-.66.66-.66h9.926c.364 0 .66.297.66.66v3.703a3.647 3.647 0 0 1 1.692 1.809.66.66 0 0 0 .293-.547V6.41a.66.66 0 0 0-.66-.664h-.332V4.094a.989.989 0 0 0-.993-.992zm0 0" fill="#bdbdbd"/><path d="M3.309 5.086h.66c.183 0 .332.133.332.297v5.36c0 .163-.149.296-.332.296h-.66c-.184 0-.332-.133-.332-.297v-5.36c0-.163.148-.296.332-.296zm0 0" fill="#bdbdbd"/><path d="M5.953 5.086h.66c.184 0 .332.133.332.297v5.36c0 .163-.148.296-.332.296h-.66c-.183 0-.332-.133-.332-.297v-5.36c0-.163.149-.296.332-.296zm0 0M8.602 5.086c-.184 0-.332.133-.332.297v4.797c.289-.63.75-1.16 1.324-1.532V5.383c0-.164-.149-.297-.332-.297zm0 0M11.246 5.086c-.184 0-.332.133-.332.297V8.12a3.716 3.716 0 0 1 1.324 0V5.383c0-.164-.148-.297-.332-.297zm0 0" fill="#bdbdbd" fill-opacity=".392"/><path d="M13.066 9.055l-3.64 2.976h1.656l-.992 2.317 3.637-2.977h-1.653zm0 0" fill-rule="evenodd" fill="#ff7043"/></svg>
